img/connector-api.svg

<svg height="26" viewBox="0 0 26 26" width="26" xmlns="http://www.w3.org/2000/svg"><g fill="none" stroke="#f2f1f2" stroke-linecap="round" stroke-linejoin="round" stroke-width="2"><path d="m1 1h24v24h-24zm3.884 12.5h-3.884"/><path d="m10.549 11.27v4.977h-2.549a2.504 2.504 0 0 1 -2.507-2.5c0-1.38 1.122-2.5 2.507-2.5h2.54m11.46 2.253h2m-7 2.478v-4.978h2.549a2.504 2.504 0 0 1 2.507 2.5c0 1.38-1.123 2.5-2.507 2.5h-2.54m-.009-1h-3m3-3h-3"/></g></svg>

<svg xmlns="http://www.w3.org/2000/svg" width="26" height="26" viewBox="0 0 26 26">
    <g fill="none" fill-rule="nonzero" stroke="#F2F1F2" stroke-linecap="round" stroke-linejoin="round" stroke-width="2">
        <path d="M1 1h24v24H1zM4.884 13.5H1"/>
        <path d="M10.549 11.27v4.977H8a2.504 2.504 0 0 1-2.507-2.5c0-1.38 1.122-2.5 2.507-2.5h2.54M22 13.5h2M17 15.978V11h2.549a2.504 2.504 0 0 1 2.507 2.5c0 1.38-1.123 2.5-2.507 2.5h-2.54M17 15h-3M17 12h-3"/>
    </g>
</svg>
